X:1
T:Title
%%score { ( 1 4 ) | ( 2 3 ) }
L:1/8
M:9/8
K:C
V:1 treble nm="Bright Piano"
V:4 treble 
V:2 bass 
V:3 bass 
V:1
 z3 z3[Q:1/4=107] [G,CE]2 [CEG] | [EGc]3- [EGc]2 [DGB] .[Ad]2 [CFA] | [CEG]3 [CE]3 [CEG]2 [EGc] | %3
 [DFB]3- [DFB]2 [DFG] [DFA]2 [DFB] |[M:3/4] [CEc]6 |[M:3/8] [G,CE]2 [CEG] | %6
[M:9/8] [EGc]3- [EGc]2 [DGB] .[Ad]2 [CFA] | [CEG]3 [CE]3 [CEG]2 [CGc] | %8
 [DGB]3- [DGB]2 [EGc] [DGB]2 [C^FA] |[M:3/4] [B,G]6 |[M:4/4] z2 d6 | z2 c6 | %12
 [CGc]>[CGc] [Fc]2- [Fc][Ac] [GB]2 |[M:3/4] [FA]2 [EG]4- |[M:1/4] [EG]2 | G>c | %16
[M:4/4] e4- e>d c>B | d2 c4 B>A | G2 c2 d3 B |[M:3/4] [Ec]6 |] %20
V:2
 z3 z3 C,2 C, | z3 z3 .[F,C]3[K:treble][K:bass] | C,3 C,3 C,2 C, | G,3- G,2 G, G,2 G, | %4
[M:3/4] C,6 |[M:3/8] C,2 C, |[M:9/8] z3 z3 .[F,C]3[K:treble][K:bass] | C,3 C,3 C,2 E, | %8
 G,3- G,2 C, D,2 D, |[M:3/4] G,6 |[M:4/4][K:treble] z2 F6 | z2 E6[K:bass] | %12
 E,>E, [F,A,]2- [F,A,][F,C] [F,C]2 |[M:3/4] [F,C]2 [C,C]4- |[M:1/4] [C,C]2 | %15
 [E,C]>[K:treble][G,CE] |[M:4/4] [CG]4- [CG]>[B,D^G] [A,DA]>[^G,DF] | %17
 [A,CF]2 [A,CF]4 [F,CG]>[F,CF] | [G,CE]2 [G,CE]2 [G,B,F]3 [G,F] |[M:3/4][K:bass] [C,G,]6 |] %20
V:3
 x9 | C,3- C,2 E, z[K:treble] c[K:bass]F, | x9 | x9 |[M:3/4] x6 |[M:3/8] x3 | %6
[M:9/8] C,3- C,2 E, z[K:treble] c[K:bass]F, | x9 | x9 |[M:3/4] x6 | %10
[M:4/4][K:treble] E>G z2 G,>G, G,2 | G>F z2[K:bass] A,>A, A,2 | x8 |[M:3/4] x6 |[M:1/4] x2 | %15
 x3/2[K:treble] x/ |[M:4/4] x8 | x8 | x8 |[M:3/4][K:bass] x6 |] %20
V:4
 x9 | x9 | x9 | x9 |[M:3/4] x6 |[M:3/8] x3 |[M:9/8] x9 | x9 | x9 |[M:3/4] x6 | %10
[M:4/4] G>B z2 B,>B, B,2 | e>d z2 C>C C2 | x8 |[M:3/4] x6 |[M:1/4] x2 | x2 |[M:4/4] x8 | x8 | x8 | %19
[M:3/4] x6 |] %20

